src/catppuccin-macchiato-red-cursors/wait-02.svg

<?xml version="1.0" encoding="UTF-8" standalone="no"?>
<svg
   id="svg5327"
   width="32"
   height="32"
   version="1.1"
   sodipodi:docname="wait-02.svg"
   inkscape:version="1.1.2 (0a00cf5339, 2022-02-04)"
   xmlns:inkscape="http://www.inkscape.org/namespaces/inkscape"
   xmlns:sodipodi="http://sodipodi.sourceforge.net/DTD/sodipodi-0.dtd"
   xmlns:xlink="http://www.w3.org/1999/xlink"
   xmlns="http://www.w3.org/2000/svg"
   xmlns:svg="http://www.w3.org/2000/svg">
  <sodipodi:namedview
     id="namedview37069"
     pagecolor="#ffffff"
     bordercolor="#666666"
     borderopacity="1.0"
     inkscape:pageshadow="2"
     inkscape:pageopacity="0.0"
     inkscape:pagecheckerboard="0"
     showgrid="false"
     inkscape:zoom="25.96875"
     inkscape:cx="16.019254"
     inkscape:cy="16.019254"
     inkscape:window-width="1896"
     inkscape:window-height="1020"
     inkscape:window-x="9"
     inkscape:window-y="45"
     inkscape:window-maximized="1"
     inkscape:current-layer="svg5327" />
  <defs
     id="defs5329">
    <filter
       id="filter837"
       style="color-interpolation-filters:sRGB"
       width="1.12"
       height="1.12"
       x="-.06"
       y="-.06">
      <feGaussianBlur
         id="feGaussianBlur839"
         stdDeviation=".55" />
    </filter>
    <filter
       id="filter839"
       style="color-interpolation-filters:sRGB"
       width="1.121"
       height="1.119"
       x="-.06"
       y="-.06">
      <feGaussianBlur
         id="feGaussianBlur841"
         stdDeviation=".396" />
    </filter>
    <linearGradient
       id="linearGradient832"
       x1="21"
       x2="25"
       y1="16"
       y2="28"
       gradientTransform="matrix(1.5384616,0,0,1.5384616,-18.615384,-18.615386)"
       gradientUnits="userSpaceOnUse"
       xlink:href="#linearGradient830" />
    <linearGradient
       id="linearGradient830">
      <stop
         id="stop826"
         style="stop-color:#ffffff;stop-opacity:1"
         offset="0" />
      <stop
         id="stop828"
         style="stop-color:#ffffff;stop-opacity:0"
         offset="1" />
    </linearGradient>
    <filter
       id="filter831"
       style="color-interpolation-filters:sRGB"
       width="1.1450988"
       height="1.142668"
       x="-0.072549419"
       y="-0.071333981">
      <feGaussianBlur
         id="feGaussianBlur833"
         stdDeviation=".475" />
    </filter>
    <filter
       id="filter835"
       style="color-interpolation-filters:sRGB"
       width="1.144"
       height="1.144"
       x="-0.072000003"
       y="-0.072000003">
      <feGaussianBlur
         id="feGaussianBlur837"
         stdDeviation=".66" />
    </filter>
  </defs>
  <circle
     id="circle819"
     style="opacity:0.2;fill:#000000;fill-opacity:1;stroke:none;stroke-width:2.19999981;stroke-linecap:round;stroke-linejoin:round;stroke-miterlimit:4;stroke-dasharray:none;stroke-opacity:1;filter:url(#filter835)"
     cx="16.5"
     cy="16.5"
     r="11" />
  <circle
     id="path818"
     style="opacity:1;fill:#24273A;fill-opacity:1;stroke:none;stroke-width:2.19999981;stroke-linecap:round;stroke-linejoin:round;stroke-miterlimit:4;stroke-dasharray:none;stroke-opacity:1"
     cx="16"
     cy="16"
     r="11" />
  <circle
     id="circle824"
     style="opacity:1;fill:#ED8796;fill-opacity:1;stroke:none;stroke-width:1.99999988;stroke-linecap:round;stroke-linejoin:round;stroke-miterlimit:4;stroke-dasharray:none;stroke-opacity:1"
     cx="16"
     cy="16"
     r="10" />
  <path
     id="path824"
     style="opacity:0.2;fill:#ED8796;fill-opacity:1;stroke:none;stroke-width:3.63636;stroke-linecap:round;stroke-linejoin:round;stroke-miterlimit:4;stroke-dasharray:none;stroke-opacity:1"
     d="M 26,16 A 10,10 0 0 1 16,26 10,10 0 0 1 6,16 10,10 0 0 1 16,5.9999988 10,10 0 0 1 26,16 Z" />
  <path
     id="path821"
     style="color:#000000;font-style:normal;font-variant:normal;font-weight:normal;font-stretch:normal;font-size:medium;line-height:normal;font-family:sans-serif;font-variant-ligatures:normal;font-variant-position:normal;font-variant-caps:normal;font-variant-numeric:normal;font-variant-alternates:normal;font-feature-settings:normal;text-indent:0;text-align:start;text-decoration:none;text-decoration-line:none;text-decoration-style:solid;text-decoration-color:#000000;letter-spacing:normal;word-spacing:normal;text-transform:none;writing-mode:lr-tb;direction:ltr;text-orientation:mixed;dominant-baseline:auto;baseline-shift:baseline;text-anchor:start;white-space:normal;shape-padding:0;clip-rule:nonzero;display:inline;overflow:visible;visibility:visible;opacity:0.2;isolation:auto;mix-blend-mode:normal;color-interpolation:sRGB;color-interpolation-filters:linearRGB;solid-color:#000000;solid-opacity:1;vector-effect:none;fill:#000000;fill-opacity:1;fill-rule:nonzero;stroke:none;stroke-width:1.0006907;stroke-linecap:round;stroke-linejoin:round;stroke-miterlimit:4;stroke-dasharray:none;stroke-dashoffset:0;stroke-opacity:1;color-rendering:auto;image-rendering:auto;shape-rendering:auto;text-rendering:auto;enable-background:accumulate;filter:url(#filter831)"
     d="M 16.761399,8.5135424 C 15.274498,8.4686229 13.79083,8.8324032 12.482102,9.5877611 10.487848,10.738782 9.093229,12.684783 8.6578833,14.933464 a 0.50330224,0.49792399 15 1 0 0.9863281,0.193359 C 10.025241,13.158704 11.242525,11.454547 12.987961,10.447136 14.733395,9.4397255 16.836494,9.2287279 18.759446,9.867058 A 0.50348212,0.49810195 15 1 0 19.073899,8.9217455 C 18.799265,8.8305795 18.523687,8.7561014 18.243821,8.695183 17.754055,8.5885772 17.257032,8.5285155 16.761399,8.5135424 Z m -0.578125,2.9882806 c -0.323132,0.02243 -0.645116,0.07773 -0.960938,0.164063 -0.180468,0.04933 -0.357519,0.109319 -0.533203,0.179687 a 0.4979601,0.49593692 75 1 0 0.369141,0.923828 c 1.12501,-0.4506 2.394783,-0.357564 3.447265,0.248047 1.052482,0.60561 1.770645,1.65643 1.953125,2.859375 a 0.49808729,0.49606359 75 1 0 0.978516,-0.148437 c -0.227978,-1.502849 -1.126538,-2.821535 -2.441406,-3.578125 -0.862881,-0.496512 -1.843106,-0.715726 -2.8125,-0.648438 z m -4.126953,5.173828 a 0.50007549,0.49606359 75 0 0 -0.146485,0.01953 0.50007549,0.49606359 75 0 0 -0.353515,0.554688 c 0.229537,1.508668 1.129338,2.83303 2.445312,3.59375 1.315975,0.760719 2.905253,0.874173 4.310547,0.310547 a 0.49994779,0.49593692 75 1 0 -0.371094,-0.927735 c -1.124861,0.451154 -2.393897,0.358917 -3.447265,-0.25 -1.053369,-0.608916 -1.773303,-1.665439 -1.957032,-2.873046 a 0.50007549,0.49606359 75 0 0 -0.480468,-0.427734 z m 11.779297,0.777344 a 0.50329883,0.49890424 15 0 0 -0.476563,0.404297 c -0.382049,1.971921 -1.599553,3.67933 -3.345703,4.689453 -1.746152,1.010124 -3.85056,1.222537 -5.773438,0.583984 a 0.50342826,0.49903254 15 1 0 -0.314453,0.947266 c 2.196991,0.729581 4.600631,0.484199 6.595703,-0.669922 1.995073,-1.15412 3.389662,-3.10635 3.826172,-5.359375 a 0.50329883,0.49890424 15 0 0 -0.363281,-0.578125 0.50329883,0.49890424 15 0 0 -0.148437,-0.01758 z" />
  <path
     id="path847"
     style="color:#000000;font-style:normal;font-variant:normal;font-weight:normal;font-stretch:normal;font-size:medium;line-height:normal;font-family:sans-serif;font-variant-ligatures:normal;font-variant-position:normal;font-variant-caps:normal;font-variant-numeric:normal;font-variant-alternates:normal;font-feature-settings:normal;text-indent:0;text-align:start;text-decoration:none;text-decoration-line:none;text-decoration-style:solid;text-decoration-color:#000000;letter-spacing:normal;word-spacing:normal;text-transform:none;writing-mode:lr-tb;direction:ltr;text-orientation:mixed;dominant-baseline:auto;baseline-shift:baseline;text-anchor:start;white-space:normal;shape-padding:0;clip-rule:nonzero;display:inline;overflow:visible;visibility:visible;opacity:1;isolation:auto;mix-blend-mode:normal;color-interpolation:sRGB;color-interpolation-filters:linearRGB;solid-color:#000000;solid-opacity:1;vector-effect:none;fill:#24273A;fill-opacity:1;fill-rule:nonzero;stroke:none;stroke-width:1.0006907;stroke-linecap:round;stroke-linejoin:round;stroke-miterlimit:4;stroke-dasharray:none;stroke-dashoffset:0;stroke-opacity:1;color-rendering:auto;image-rendering:auto;shape-rendering:auto;text-rendering:auto;enable-background:accumulate"
     d="M 16.261719 8.0136719 C 14.774818 7.9687524 13.29115 8.3325327 11.982422 9.0878906 C 9.9881677 10.238912 8.5935488 12.184913 8.1582031 14.433594 A 0.50330224 0.49792399 15 1 0 9.1445312 14.626953 C 9.5255605 12.658834 10.742845 10.954677 12.488281 9.9472656 C 14.233715 8.939855 16.336814 8.7288574 18.259766 9.3671875 A 0.50329313 0.49791498 15 1 0 18.574219 8.421875 C 18.299585 8.330709 18.024007 8.2562309 17.744141 8.1953125 C 17.254375 8.0887067 16.757352 8.028645 16.261719 8.0136719 z M 15.683594 11.001953 C 15.360462 11.024382 15.038478 11.079683 14.722656 11.166016 C 14.542188 11.215346 14.365137 11.275335 14.189453 11.345703 A 0.4979601 0.49593692 75 1 0 14.558594 12.269531 C 15.683604 11.818931 16.953377 11.911967 18.005859 12.517578 C 19.058341 13.123188 19.776504 14.174008 19.958984 15.376953 A 0.49808729 0.49606359 75 1 0 20.9375 15.228516 C 20.709522 13.725667 19.810962 12.406981 18.496094 11.650391 C 17.633213 11.153879 16.652988 10.934665 15.683594 11.001953 z M 11.556641 16.175781 A 0.50007549 0.49606359 75 0 0 11.410156 16.195312 A 0.50007549 0.49606359 75 0 0 11.056641 16.75 C 11.286178 18.258668 12.185979 19.58303 13.501953 20.34375 C 14.817928 21.104469 16.407206 21.217923 17.8125 20.654297 A 0.49994779 0.49593692 75 1 0 17.441406 19.726562 C 16.316545 20.177716 15.047509 20.085479 13.994141 19.476562 C 12.940772 18.867646 12.220838 17.811123 12.037109 16.603516 A 0.50007549 0.49606359 75 0 0 11.556641 16.175781 z M 23.335938 16.953125 A 0.50329883 0.49890424 15 0 0 22.859375 17.357422 C 22.477326 19.329343 21.259822 21.036752 19.513672 22.046875 C 17.76752 23.056999 15.663112 23.269412 13.740234 22.630859 A 0.50328986 0.49889536 15 1 0 13.425781 23.578125 C 15.622772 24.307706 18.026412 24.062324 20.021484 22.908203 C 22.016557 21.754083 23.411146 19.801853 23.847656 17.548828 A 0.50329883 0.49890424 15 0 0 23.484375 16.970703 A 0.50329883 0.49890424 15 0 0 23.335938 16.953125 z" />
</svg>

<svg xmlns="http://www.w3.org/2000/svg" width="32" height="32">
    <defs>
        <filter id="b" width="1.145" height="1.143" x="-.073" y="-.071" style="color-interpolation-filters:sRGB">
            <feGaussianBlur stdDeviation=".475"/>
        </filter>
        <filter id="a" width="1.144" height="1.144" x="-.072" y="-.072" style="color-interpolation-filters:sRGB">
            <feGaussianBlur stdDeviation=".66"/>
        </filter>
    </defs>
    <circle cx="16.5" cy="16.5" r="11" style="opacity:.2;fill:#000;fill-opacity:1;stroke:none;stroke-width:2.19999981;stroke-linecap:round;stroke-linejoin:round;stroke-miterlimit:4;stroke-dasharray:none;stroke-opacity:1;filter:url(#a)"/>
    <circle cx="16" cy="16" r="11" style="opacity:1;fill:#24273a;fill-opacity:1;stroke:none;stroke-width:2.19999981;stroke-linecap:round;stroke-linejoin:round;stroke-miterlimit:4;stroke-dasharray:none;stroke-opacity:1"/>
    <circle cx="16" cy="16" r="10" style="opacity:1;fill:#ed8796;fill-opacity:1;stroke:none;stroke-width:1.99999988;stroke-linecap:round;stroke-linejoin:round;stroke-miterlimit:4;stroke-dasharray:none;stroke-opacity:1"/>
    <path d="M26 16a10 10 0 0 1-10 10A10 10 0 0 1 6 16 10 10 0 0 1 16 6a10 10 0 0 1 10 10" style="opacity:.2;fill:#ed8796;fill-opacity:1;stroke:none;stroke-width:3.63636;stroke-linecap:round;stroke-linejoin:round;stroke-miterlimit:4;stroke-dasharray:none;stroke-opacity:1"/>
    <path d="M16.761 8.514a8.07 8.07 0 0 0-4.279 1.074 7.9 7.9 0 0 0-3.824 5.345.503.498 15 1 0 .986.194 6.92 6.92 0 0 1 3.344-4.68 7.1 7.1 0 0 1 5.771-.58.503.498 15 1 0 .315-.945 8 8 0 0 0-2.313-.408m-.578 2.988a5 5 0 0 0-1.494.344.498.496 75 1 0 .37.923 3.96 3.96 0 0 1 3.447.248 3.99 3.99 0 0 1 1.953 2.86.498.496 75 1 0 .978-.149 5 5 0 0 0-2.441-3.578 4.95 4.95 0 0 0-2.813-.648m-4.127 5.174a.5.496 75 0 0-.146.02.5.496 75 0 0-.354.554 5.02 5.02 0 0 0 2.446 3.594 4.94 4.94 0 0 0 4.31.31.5.496 75 1 0-.37-.928 3.95 3.95 0 0 1-3.448-.25 4.01 4.01 0 0 1-1.957-2.873.5.496 75 0 0-.48-.427m11.78.777a.503.499 15 0 0-.477.404 6.94 6.94 0 0 1-3.346 4.69 7.08 7.08 0 0 1-5.773.584.503.499 15 1 0-.315.947 8.1 8.1 0 0 0 6.596-.67 7.94 7.94 0 0 0 3.826-5.36.503.499 15 0 0-.363-.577.503.499 15 0 0-.148-.018" style="color:#000;font-style:normal;font-variant:normal;font-weight:400;font-stretch:normal;font-size:medium;line-height:normal;font-family:sans-serif;font-variant-ligatures:normal;font-variant-position:normal;font-variant-caps:normal;font-variant-numeric:normal;font-variant-alternates:normal;font-feature-settings:normal;text-indent:0;text-align:start;text-decoration:none;text-decoration-line:none;text-decoration-style:solid;text-decoration-color:#000;letter-spacing:normal;word-spacing:normal;text-transform:none;writing-mode:lr-tb;direction:ltr;text-orientation:mixed;dominant-baseline:auto;baseline-shift:baseline;text-anchor:start;white-space:normal;shape-padding:0;clip-rule:nonzero;display:inline;overflow:visible;visibility:visible;opacity:.2;isolation:auto;mix-blend-mode:normal;color-interpolation:sRGB;color-interpolation-filters:linearRGB;solid-color:#000;solid-opacity:1;vector-effect:none;fill:#000;fill-opacity:1;fill-rule:nonzero;stroke:none;stroke-width:1.0006907;stroke-linecap:round;stroke-linejoin:round;stroke-miterlimit:4;stroke-dasharray:none;stroke-dashoffset:0;stroke-opacity:1;color-rendering:auto;image-rendering:auto;shape-rendering:auto;text-rendering:auto;enable-background:accumulate;filter:url(#b)"/>
    <path d="M16.262 8.014a8.07 8.07 0 0 0-4.28 1.074 7.9 7.9 0 0 0-3.824 5.346.503.498 15 1 0 .987.193 6.92 6.92 0 0 1 3.343-4.68 7.1 7.1 0 0 1 5.772-.58.503.498 15 1 0 .314-.945 8 8 0 0 0-2.312-.408m-.578 2.988a5 5 0 0 0-1.495.344.498.496 75 1 0 .37.924 3.96 3.96 0 0 1 3.447.248 3.99 3.99 0 0 1 1.953 2.859.498.496 75 1 0 .979-.148 5 5 0 0 0-2.442-3.579 4.95 4.95 0 0 0-2.812-.648m-4.127 5.174a.5.496 75 0 0-.147.02.5.496 75 0 0-.353.554 5.02 5.02 0 0 0 2.445 3.594 4.94 4.94 0 0 0 4.31.31.5.496 75 1 0-.37-.927 3.95 3.95 0 0 1-3.448-.25 4.01 4.01 0 0 1-1.957-2.873.5.496 75 0 0-.48-.428m11.779.777a.503.499 15 0 0-.477.404 6.94 6.94 0 0 1-3.345 4.69 7.08 7.08 0 0 1-5.774.584.503.499 15 1 0-.314.947c2.197.73 4.6.484 6.595-.67a7.94 7.94 0 0 0 3.827-5.36.503.499 15 0 0-.364-.577.503.499 15 0 0-.148-.018" style="color:#000;font-style:normal;font-variant:normal;font-weight:400;font-stretch:normal;font-size:medium;line-height:normal;font-family:sans-serif;font-variant-ligatures:normal;font-variant-position:normal;font-variant-caps:normal;font-variant-numeric:normal;font-variant-alternates:normal;font-feature-settings:normal;text-indent:0;text-align:start;text-decoration:none;text-decoration-line:none;text-decoration-style:solid;text-decoration-color:#000;letter-spacing:normal;word-spacing:normal;text-transform:none;writing-mode:lr-tb;direction:ltr;text-orientation:mixed;dominant-baseline:auto;baseline-shift:baseline;text-anchor:start;white-space:normal;shape-padding:0;clip-rule:nonzero;display:inline;overflow:visible;visibility:visible;opacity:1;isolation:auto;mix-blend-mode:normal;color-interpolation:sRGB;color-interpolation-filters:linearRGB;solid-color:#000;solid-opacity:1;vector-effect:none;fill:#24273a;fill-opacity:1;fill-rule:nonzero;stroke:none;stroke-width:1.0006907;stroke-linecap:round;stroke-linejoin:round;stroke-miterlimit:4;stroke-dasharray:none;stroke-dashoffset:0;stroke-opacity:1;color-rendering:auto;image-rendering:auto;shape-rendering:auto;text-rendering:auto;enable-background:accumulate"/>
</svg>
